raw/spot/spot-image-error.svg

<svg width="80" height="80" viewBox="0 0 80 80" fill="none" xmlns="http://www.w3.org/2000/svg">
<g clip-path="url(#clip0_724_2296)">
<mask id="mask0_724_2296" style="mask-type:alpha" maskUnits="userSpaceOnUse" x="23" y="-2" width="57" height="84">
<path d="M42 33L65 -2H80V81.5H23.5L53 39.5L42 33Z" fill="white"/>
</mask>
<g mask="url(#mask0_724_2296)">
<path fill-rule="evenodd" clip-rule="evenodd" d="M67.5 67C71.6421 67 75 63.6421 75 59.5V23.5C75 19.3579 71.6421 16 67.5 16H16.5C12.3579 16 9 19.3579 9 23.5V59.5C9 63.6421 12.3579 67 16.5 67H67.5Z" fill="#E3E7F5"/>
<path d="M44.7849 60.5H17.5469C15.393 60.5 14.2473 57.9579 15.6738 56.3442L28.1764 42.2014C29.1175 41.1368 30.7555 41.0696 31.7806 42.0535L46.516 56.1963C48.1408 57.7558 47.037 60.5 44.7849 60.5Z" fill="#D3D8EA"/>
<path d="M67.6386 60.5H36.177C34.085 60.5 32.9183 58.0839 34.219 56.4455L50.7711 35.5974C51.8043 34.2961 53.796 34.3461 54.7626 35.6977L69.6721 56.5457C70.8553 58.2003 69.6727 60.5 67.6386 60.5Z" fill="#D3D8EA"/>
<circle cx="28" cy="30" r="5" fill="#D3D8EA"/>
</g>
<mask id="mask1_724_2296" style="mask-type:alpha" maskUnits="userSpaceOnUse" x="-4" y="-7" width="56" height="84">
<path d="M31 34L52 -7H-4V76.5H25.5L44.5 41.5L31 34Z" fill="white"/>
</mask>
<g mask="url(#mask1_724_2296)">
<path fill-rule="evenodd" clip-rule="evenodd" d="M63.5 62C67.6421 62 71 58.6421 71 54.5V18.5C71 14.3579 67.6421 11 63.5 11H12.5C8.35787 11 5 14.3579 5 18.5V54.5C5 58.6421 8.35786 62 12.5 62H63.5Z" fill="#E3E7F5"/>
<path d="M40.7849 55.5H13.5469C11.393 55.5 10.2473 52.9579 11.6738 51.3442L24.1764 37.2014C25.1175 36.1368 26.7555 36.0696 27.7806 37.0535L42.516 51.1963C44.1408 52.7558 43.037 55.5 40.7849 55.5Z" fill="#D3D8EA"/>
<path d="M63.6386 55.5H32.177C30.085 55.5 28.9183 53.0839 30.219 51.4455L46.7711 30.5974C47.8043 29.2961 49.796 29.3461 50.7626 30.6977L65.6721 51.5457C66.8553 53.2003 65.6727 55.5 63.6386 55.5Z" fill="#D3D8EA"/>
<circle cx="24" cy="25" r="5" fill="#D3D8EA"/>
</g>
<path fill-rule="evenodd" clip-rule="evenodd" d="M60.3363 45.3582C62.4513 41.842 67.5487 41.842 69.6636 45.3582L79.1339 61.1025C81.3157 64.7298 78.7032 69.35 74.4703 69.35H55.5297C51.2967 69.35 48.6842 64.7298 50.8661 61.1025L60.3363 45.3582ZM66.6644 47.1622C65.9096 45.9074 64.0904 45.9073 63.3356 47.1622L53.8653 62.9066C53.0866 64.2011 54.019 65.85 55.5297 65.85H74.4703C75.981 65.85 76.9133 64.2011 76.1347 62.9066L66.6644 47.1622Z" fill="#0066FF"/>
<path fill-rule="evenodd" clip-rule="evenodd" d="M63.5486 50.1992C63.1441 50.1992 62.8242 50.5417 62.8518 50.9453L63.2366 56.5673C63.2394 56.6075 63.2456 56.6475 63.2553 56.6867L63.9899 59.6679C64.0667 59.9799 64.3466 60.1992 64.6679 60.1992H65.3336C65.6549 60.1992 65.9348 59.9799 66.0117 59.6679L66.7462 56.6867C66.7559 56.6475 66.7621 56.6075 66.7649 56.5673L67.1497 50.9453C67.1773 50.5417 66.8574 50.1992 66.453 50.1992H63.5486ZM64.1983 61.1953C63.8126 61.1953 63.5 61.508 63.5 61.8937V63.4969C63.5 63.8826 63.8126 64.1953 64.1983 64.1953H65.8057C66.1914 64.1953 66.5041 63.8826 66.5041 63.4969V61.8937C66.5041 61.508 66.1914 61.1953 65.8057 61.1953H64.1983Z" fill="#0066FF"/>
</g>
<defs>
<clipPath id="clip0_724_2296">
<rect width="80" height="80" fill="white"/>
</clipPath>
</defs>
</svg>

<svg width="80" height="80" viewBox="0 0 80 80" fill="none" xmlns="http://www.w3.org/2000/svg"><g clip-path="url(#clip0_724_2296)"><mask id="mask0_724_2296" style="mask-type:alpha" maskUnits="userSpaceOnUse" x="23" y="-2" width="57" height="84"><path d="M42 33 65-2h15v83.5H23.5l29.5-42L42 33z" fill="#fff"/></mask><g mask="url(#mask0_724_2296)"><path fill-rule="evenodd" clip-rule="evenodd" d="M67.5 67a7.5 7.5 0 0 0 7.5-7.5v-36a7.5 7.5 0 0 0-7.5-7.5h-51A7.5 7.5 0 0 0 9 23.5v36a7.5 7.5 0 0 0 7.5 7.5h51z" fill="#E3E7F5"/><path d="M44.785 60.5H17.547c-2.154 0-3.3-2.542-1.873-4.156l12.502-14.143a2.5 2.5 0 0 1 3.605-.148l14.735 14.143c1.625 1.56.521 4.304-1.731 4.304z" fill="#D3D8EA"/><path d="M67.639 60.5H36.177c-2.092 0-3.259-2.416-1.958-4.054l16.552-20.849a2.5 2.5 0 0 1 3.992.1l14.91 20.849c1.182 1.654 0 3.954-2.034 3.954z" fill="#D3D8EA"/><circle cx="28" cy="30" r="5" fill="#D3D8EA"/></g><mask id="mask1_724_2296" style="mask-type:alpha" maskUnits="userSpaceOnUse" x="-4" y="-7" width="56" height="84"><path d="M31 34 52-7H-4v83.5h29.5l19-35L31 34z" fill="#fff"/></mask><g mask="url(#mask1_724_2296)"><path fill-rule="evenodd" clip-rule="evenodd" d="M63.5 62a7.5 7.5 0 0 0 7.5-7.5v-36a7.5 7.5 0 0 0-7.5-7.5h-51A7.5 7.5 0 0 0 5 18.5v36a7.5 7.5 0 0 0 7.5 7.5h51z" fill="#E3E7F5"/><path d="M40.785 55.5H13.547c-2.154 0-3.3-2.542-1.873-4.156l12.502-14.143a2.5 2.5 0 0 1 3.605-.148l14.735 14.143c1.625 1.56.521 4.304-1.731 4.304z" fill="#D3D8EA"/><path d="M63.639 55.5H32.177c-2.092 0-3.259-2.416-1.958-4.054l16.552-20.849a2.5 2.5 0 0 1 3.992.1l14.91 20.849c1.182 1.654 0 3.954-2.034 3.954z" fill="#D3D8EA"/><circle cx="24" cy="25" r="5" fill="#D3D8EA"/></g><path fill-rule="evenodd" clip-rule="evenodd" d="M60.336 45.358c2.115-3.516 7.213-3.516 9.328 0l9.47 15.745c2.182 3.627-.43 8.247-4.664 8.247H55.53c-4.233 0-6.846-4.62-4.664-8.247l9.47-15.745zm6.328 1.804c-.754-1.255-2.574-1.255-3.328 0l-9.47 15.745c-.78 1.294.153 2.943 1.664 2.943h18.94c1.511 0 2.443-1.649 1.665-2.943l-9.47-15.745z" fill="#06F"/><path fill-rule="evenodd" clip-rule="evenodd" d="M63.549 50.2a.698.698 0 0 0-.697.745l.385 5.622a.7.7 0 0 0 .018.12l.735 2.98a.698.698 0 0 0 .678.532h.666c.32 0 .6-.22.678-.531l.734-2.981a.7.7 0 0 0 .019-.12l.385-5.622a.698.698 0 0 0-.697-.746h-2.904zm.65 10.995a.698.698 0 0 0-.699.699v1.603c0 .386.313.698.698.698h1.608a.698.698 0 0 0 .698-.698v-1.603a.698.698 0 0 0-.698-.699h-1.608z" fill="#06F"/></g><defs><clipPath id="clip0_724_2296"><path fill="#fff" d="M0 0H80V80H0z"/></clipPath></defs></svg>
